X: 340
T:Si jeusse Marion
N: Derived from Jos2735-Si_jeusse_Marion.krn
C: Josquin des Prez
%%abc-version 2.0
%%abcx-abcm2ps-target-version 5.9.1 (29 Sep 2008)
%%abc-creator hum2abc beta
%%abcx-conversion-date 2019/02/12 16:15:54
%%abc-edited-by Jesse Rodin
%%abc-edited-by Chris Gage 06-07-2012
%%abcx-initial-encoding-date 2012/06/07/
%%humdrum-veritas 2986659175
%%humdrum-veritas-data 667882757
%%linebreak <none>
%%barnumbers 0
L: 1/4
M: 2/1
Q: 1/2=120
V: 1 clef=treble-8
V: 2 clef=treble-8
V: 3 clef=bass
K: F
[V:1] A4A2A2 | 
[V:2] z8 | 
[V:3] z8 | 
[V:1] c6c2 | 
[V:2] z8 | 
[V:3] z8 | 
[V:1] d4f4- | 
[V:2] z8 | 
[V:3] D,4D,2D,2 | 
[V:1] f2edc2d2- | 
[V:2] z8 | 
[V:3] F,6F,2 | 
[V:1] d2GABcde | 
[V:2] z8 | 
[V:3] G,2B,4A,G, | 
[V:1] f3ed2c2- | 
[V:2] A4A2A2 | 
[V:3] A,2D,E,F,G,A,2- | 
[V:1] c2BAG4 | 
[V:2] c6c2 | 
[V:3] A,2G,F,E,4 | 
[V:1] z2B4AG | 
[V:2] d8 | 
[V:3] D,2G,4F,E, | 
[V:1] A4B4 | 
[V:2] f6ed | 
[V:3] D,8 | 
[V:1] c3BG3A | 
[V:2] e8 | 
[V:3] C,8 | 
[V:1] BcB4AG | 
[V:2] z4z2d2 | 
[V:3] z2G,2G,2G,2 | 
[V:1] A2F2G2G2 | 
[V:2] d2d2c2BA | 
[V:3] F,2E,D,E,2E,2 | 
[V:1] d4z2d2 | 
[V:2] B4B4 | 
[V:3] D,2G,2G,2G,2 | 
[V:1] d2d2c2BA | 
[V:2] A4z4 | 
[V:3] F,2E,D,E,3F, | 
[V:1] B2B2A4 | 
[V:2] z2d2d2d2 | 
[V:3] G,3F,D,3E, | 
[V:1] z4d4 | 
[V:2] c2BAB2B2 | 
[V:3] F,G,A,F,G,4 | 
[V:1] d2d2f4- | 
[V:2] A8 | 
[V:3] D,4z2D,2 | 
[V:1] f2g2a4- | 
[V:2] z2A2A2A2 | 
[V:3] D,2D,2F,4- | 
[V:1] a2gfe3f | 
[V:2] c6c2 | 
[V:3] F,2G,2A,4 | 
[V:1] g4f3e | 
[V:2] d8 | 
[V:3] G,4B,4- | 
[V:1] d2cBc4- | 
[V:2] f6ed | 
[V:3] B,2A,G,A,4 | 
[V:1] c2B2A2GF | 
[V:2] e4z2d2 | 
[V:3] z2G,2F,2E,D, | 
[V:1] G2g4fe | 
[V:2] c2BAB2B2 | 
[V:3] E,2E,2D,4- | 
[V:1] f4e2d2- | 
[V:2] A2d2c2B2- | 
[V:3] D,4z2G,2 | 
[V:1] d2^c=B^c4 | 
[V:2] BAA4G2 | 
[V:3] F,2E,D,E,2E,2 | 
[V:1] d4z2d2 | 
[V:2] A8- | 
[V:3] D,8- | 
[V:1] d2d2f4- | 
[V:2] A8 | 
[V:3] D,4z2D,2 | 
[V:1] f2f2c4- | 
[V:2] z4z2A2 | 
[V:3] D,2D,2F,4- | 
[V:1] c2d2_e3d | 
[V:2] A2A2c4- | 
[V:3] F,2F,2C,4- | 
[V:1] _e2d2B4- | 
[V:2] c2c2G4- | 
[V:3] C,2D,2_E,3D, | 
[V:1] B2c2d4- | 
[V:2] G2A2B3A | 
[V:3] _E,2C,2B,,4- | 
[V:1] d2e2f4 | 
[V:2] B2A2F2G2 | 
[V:3] B,,2C,2D,4 | 
[V:1] e2a4gf | 
[V:2] A8- | 
[V:3] z2D,E,F,G,A,B, | 
[V:1] e2d2e4 | 
[V:2] A8 | 
[V:3] CA,D4^C2 | 
[V:1] d2GABcde | 
[V:2] z8 | 
[V:3] D8 | 
[V:1] fgagfef2- | 
[V:2] z8 | 
[V:3] z2D,2D,2D,2 | 
[V:1] f2edc2d2- | 
[V:2] z8 | 
[V:3] F,6F,2 | 
[V:1] dcBAB2d2- | 
[V:2] z8 | 
[V:3] G,4G,2G,2 | 
[V:1] dcf4ed | 
[V:2] A4A2A2 | 
[V:3] F,4D,4 | 
[V:1] g2G3FGA | 
[V:2] c6c2 | 
[V:3] _E,4E,4 | 
[V:1] Bcdefga2- | 
[V:2] d6c2 | 
[V:3] D,2B,,C,D,E,F,2 | 
[V:1] adg4^f2 | 
[V:2] B2AGA2A2 | 
[V:3] G,2E,2D,4 | 
[V:1] g4z2g2- | 
[V:2] G8 | 
[V:3] z2E,2E,2E,2 | 
[V:1] g2fed2e2- | 
[V:2] z8 | 
[V:3] G,6G,2 | 
[V:1] e2d2c2B2 | 
[V:2] z2A2A2A2 | 
[V:3] A,6G,2 | 
[V:1] A2GFG4 | 
[V:2] c6c2 | 
[V:3] F,2E,D,E,2E,2 | 
[V:1] A2B3AA2- | 
[V:2] d6c2 | 
[V:3] D,8- | 
[V:1] AGg4^f2 | 
[V:2] B2AGA2A2 | 
[V:3] D,8 | 
[V:1] g8 |]  
[V:2] G8 |]  
[V:3] G,8 |]  



